!!!COM: Chopin, Frederic
!!!CDT: 1810///-1849///
!!!OTL: Prelude in E-flat Major, Op. 28, No. 19
!!!OPS: Op. 28
!!!ONM: No. 19
!!!OMD: Vivace
!!!ODT: 1836///-1839///
!!!PDT: 1839///
!!!ENC: Craig Stuart Sapp
!!!AIN: piano
!!!EEV: 2008/01/15/
!!!YEC: Copyright 2008 by Craig Stuart Sapp
!!!YEN: United States of America
**kern	**kern	**dynam
*staff2	*staff1	*staff1
*clefF4	*clefG2	*clefG2
*k[b-e-a-]	*k[b-e-a-]	*k[b-e-a-]
*E-:	*E-:	*E-:
*M3/4	*M3/4	*M3/4
*MM164	*MM164	*MM164
4r	4b-\	p
=1	=1	=1
12EE-/L	12b-/L	<
12G/	12B-/	.
12BB-/J	12g/J	.
12EE-/L	12ee-/L	.
12G/	12e-/	.
12BB-/J	12b-/J	.
12EE-/L	12gg\L	.
12B-/	12g\	.
12BB-/J	12ee-\J	.
=2	=2	=2
12EE-\L	12bb-\L	.
12e-\	12b-\	.
12G\J	12gg\J	.
12BB-\L	12eee-\L	.
12g\	12ee-\	.
12B-\J	12bb-\J	.
12E-\L	12ggg\L	.
12b-\	12ee-\	.
12B-\J	12bb-\J	.
=3	=3	=3
12E-\L	12fff\L	.
12bn\	12dd\	.
12Bn\J	12aa-\J	.
12E-\L	12eee-\L	.
12cc\	12ee-\	.
12c\J	12aa-\J	.
12E-\L	12ccc\L	.
12a-\	12cc\	.
12d\J	12aa-\J	.
=4	=4	=4
12E-\L	12ccc\L	>
12g\	12cc\	.
12e-\J	12gg\J	.
12B-\L	12bb-\L	.
12g\	12b-\	.
12e-\J	12ee-\J	.
12E-\L	12gg\L	.
12e-\	12g\	.
12G\J	12b-\J	.
=5	=5	=5
12FF\L	12ee-/L	<
12c\	12e-/	.
12F\J	12an/J	.
12C\L	12dd/L	.
12c\	12d/	.
12F\J	12a/J	.
12FF\L	12ee-/L	.
12c\	12e-/	.
12F\J	12a/J	.
=6	=6	=6
12BB-\L	12gg\L	>
12e-\	12g\	.
12F\J	12b-\J	.
12D\L	12ff\L	.
12d\	12f\	.
12F\J	12b-\J	.
12BB-\L	12dd/L	.
12B-\	12d/	.
12F\J	12f/J	.
=7	=7	=7
12FF\L	12ee-/L	<
12c\	12e-/	.
12F\J	12an/J	.
12C\L	12dd/L	.
12Bn\	12d/	.
12F\J	12a/J	.
12FF\L	12ee-/L	.
12c\	12e-/	.
12F\J	12a/J	.
=8	=8	=8
12BB-\L	12gg\L	>
12e-\	12g\	.
12A-\J	12cc\J	.
12F\L	12ff\L	.
12d\	12f\	.
12A-\J	12a-\J	.
12BB-\L	12cc/L	.
12A-\	12c/	.
12D\J	12f/J	.
=9	=9	=9
12EE-/L	12b-/L	<
12G/	12B-/	.
12BB-/J	12g/J	.
12EE-/L	12ee-/L	.
12G/	12e-/	.
12BB-/J	12b-/J	.
12EE-/L	12gg\L	.
12B-/	12g\	.
12BB-/J	12ee-\J	.
=10	=10	=10
12EE-\L	12bb-\L	.
12e-\	12b-\	.
12G\J	12gg\J	.
12BB-\L	12eee-\L	.
12g\	12ee-\	.
12B-\J	12bb-\J	.
12E-\L	12ggg\L	.
12b-\	12ee-\	.
12B-\J	12bb-\J	.
=11	=11	=11
12E-\L	12fff\L	>
12bn\	12dd\	.
12Bn\J	12aa-\J	.
12E-\L	12eee-\L	.
12cc\	12ee-\	.
12c\J	12aa-\J	.
12E-\L	12ccc\L	.
12a-\	12cc\	.
12d\J	12aa-\J	.
=12	=12	=12
12E-\L	12ccc\L	>
12g\	12cc\	.
12e-\J	12gg\J	.
12B-\L	12bb-\L	.
12g\	12b-\	.
12e-\J	12ee-\J	.
12C\L	12gg\L	.
12e-\	12g\	.
12G\J	12ee-\J	.
=13	=13	=13
12C-\L	12gg-\L	<
12e-\	12g-\	.
12An\J	12ee-\J	.
12E-\L	12ff\L	.
12e-\	12f\	.
12A\J	12ee-\J	.
12C-\L	12ff#\L	.
12e-\	12f#\	.
12A\J	12ee-\J	.
=14	=14	=14
12BB-\L	12gg\L	.
12d\	12g\	.
12G\J	12dd\J	.
12AAn\L	12aan\L	.
12d\	12an\	.
12F#\J	12dd\J	.
12GG\L	12bb-\L	.
12d\	12b-\	.
12G\J	12dd\J	.
=15	=15	=15
12FF\L	12ccc\L	.
12b-\	12cc\	.
12e-\J	12ff\J	.
12F\L	12ddd\L	.
12b-\	12dd\	.
12e-\J	12ff\J	.
12c\L	12aan\L	.
12f\	12an\	.
12e-\J	12ff\J	.
=16	=16	=16
12BB-\L	12ccc\L	>
12e-\	12cc\	.
12F\J	12ff\J	.
12BB-\L	12bb-\L	.
12d\	12b-\	.
12F\J	12ff\J	.
12BB-\L	12ff\L	.
12d-\	12f\	.
12F\J	12b-\J	.
=17	=17	=17
12AA-\L	12ff\L	p
12c-\	12f\	.
12F\J	12cc-\J	.
12D-\L	12ee-/L	.
12c-\	12e-/	.
12F\J	12b-/J	.
12DD-\L	12ff/L	.
12c-\	12d-/	.
12F\J	12a-/J	.
=18	=18	=18
12GG-\L	12aa-\L	>
12B-\	12d-\	.
12G-\J	12b-\J	.
12D-\L	12gg-\L	.
12B-\	12d-\	.
12G-\J	12b-\J	.
12GG-\L	12dd-/L	.
12B-\	12d-/	.
12D-\J	12b-/J	.
=19	=19	=19
12DD-\L	12ff/L	<
12c-\	12d-/	.
12F\J	12cc-/J	.
12AA-\L	12ee-/L	.
12c-\	12d-/	.
12F\J	12b-/J	.
12DD-\L	12ff/L	.
12c-\	12d-/	.
12F\J	12a-/J	.
=20	=20	=20
12GG-\L	12aa-\L	>
12B-\	12d-\	.
12G-\J	12b-\J	.
12D-\L	12gg-\L	.
12B-\	12d-\	.
12G-\J	12b-\J	.
12GG-\L	12ff\L	.
12B-\	12d-\	.
12D-\J	12b-\J	.
=21	=21	=21
12GG-\L	12ff-\L	<
12B-\	12d-\	.
12D-\J	12b-\J	.
12GG-\L	12bb-\L	.
12d-\	12f-\	.
12G-\J	12dd-\J	.
12GG-\L	12ddd-\L	.
12en\	12b-\	.
12B-\J	12een\J	.
=22	=22	=22
12FF\L	12dddn\L	>
12f\	12b-\	.
12B-\J	12ff\J	.
12F\L	12eee-\L	.
12g\	12b-\	.
12B-\J	12gg\J	.
12F\L	12bbn\L	.
12f\	12g#\	.
12Bn\J	12dd\J	.
=23	=23	=23
12F\L	12ccc\L	>
12f\	12an\	.
12c\J	12ee-\J	.
12F\L	12ddd\L	.
12f\	12a\	.
12e-\J	12ff\J	.
12F\L	12aan\L	.
12e-\	12f\	.
12An\J	12cc\J	.
=24	=24	=24
12BB-\L	12ccc\L	>
12e-\	12f\	.
12F\J	12ee-\J	.
12BB-\L	12bb-\L	.
12d\	12f\	.
12F\J	12dd\J	.
12BB-\L	12ff\L	.
12d-\	12f\	.
12F\J	12b-\J	.
=25	=25	=25
12AA-\L	12ff\L	<
12c-\	12f\	.
12F\J	12cc-\J	.
12D-\L	12ee-\L	.
12c-\	12e-\	.
12F\J	12b-\J	.
12DD-\L	12ff\L	.
12c-\	12d-\	.
12F\J	12a-\J	.
=26	=26	=26
12GG-\L	12aa-\L	>
12B-\	12d-\	.
12G-\J	12b-\J	.
12D-\L	12gg-\L	.
12B-\	12d-\	.
12G-\J	12b-\J	.
12GG-\L	12dd-/L	.
12B-\	12d-/	.
12D-\J	12b-/J	.
=27	=27	=27
12DD-\L	12ff/L	<
12c-\	12d-/	.
12F\J	12cc-/J	.
12AA-\L	12ee-/L	.
12c-\	12d-/	.
12F\J	12b-/J	.
12DD-\L	12ff/L	.
12c-\	12d-/	.
12F\J	12a-/J	.
=28	=28	=28
12GG-\L	12aa-/L	>
12B-\	12d-/	.
12G-\J	12b-/J	.
12D-\L	12gg-/L	.
12B-\	12d-/	.
12G-\J	12b-/J	.
12GG-\L	12ff/L	.
12B-\	12d-/	.
12D-\J	12b-/J	.
=29	=29	=29
12GGn\L	12een/L	<
12B-\	12c#/	.
12En\J	12b-/J	.
12BB-\L	12gg/L	.
12c#\	12en/	.
12E\J	12cc#/J	.
12AAn\L	12ff#/L	.
12cn\	12e-/	.
12E-\J	12ccn/J	.
=30	=30	=30
12C\L	12aan\L	.
12e-\	12f#\	.
12F#\J	12ee-\J	.
12BBn\L	12gg#\L	.
12d\	12fn\	.
12Fn\J	12dd\J	.
12D\L	12bbn\L	.
12f\	12g#\	.
12G#\J	12ffn\J	.
=31	=31	=31
12C#\L	12bb-\L	.
12en\	12gn\	.
12G\J	12een\J	.
12En\L	12ddd-\L	.
12g\	12b-\	.
12B-\J	12gg\J	.
12D#\L	12ccc\L	.
12f#\	12an\	.
12An\J	12ff#\J	.
=32	=32	=32
12F#\L	12eee-\L	.
12an\	12cc\	.
12c\J	12aan\J	.
12Fn\L	12dddn\L	.
12a-\	12cc-\	.
12c-\J	12aa-\J	.
8B-^\	8fff^\	.
8r	8r	.
=33	=33	=33
12EE-/L	12b-/L	p
12G/	12B-/	<
12BB-/J	12g/J	.
12EE-/L	12ee-/L	.
12G/	12e-/	.
12BB-/J	12b-/J	.
12EE-/L	12gg\L	.
12B-/	12g\	.
12BB-/J	12ee-\J	.
=34	=34	=34
12EE-\L	12bb-\L	.
12e-\	12b-\	.
12G\J	12gg\J	.
12BB-\L	12eee-\L	.
12g\	12ee-\	.
12B-\J	12bb-\J	.
12E-\L	12ggg\L	.
12b-\	12ee-\	.
12B-\J	12bb-\J	.
=35	=35	=35
12E-\L	12fff\L	>
12bn\	12dd\	.
12Bn\J	12aa-\J	.
12E-\L	12eee-\L	.
12cc\	12ee-\	.
12c\J	12aa-\J	.
12E-\L	12ccc\L	.
12a-\	12cc\	.
12d\J	12aa-\J	.
=36	=36	=36
12E-\L	12ccc\L	>
12g\	12cc\	.
12e-\J	12gg\J	.
12B-\L	12bb-\L	.
12g\	12b-\	.
12e-\J	12ee-\J	.
12E-\L	12gg\L	.
12e-\	12g\	.
12G\J	12b-\J	.
=37	=37	=37
12FF\L	12ee-/L	<
12c\	12e-/	.
12F\J	12an/J	.
12C\L	12dd/L	.
12c\	12d/	.
12F\J	12a/J	.
12FF\L	12ee-/L	.
12c\	12e-/	.
12F\J	12a/J	.
=38	=38	=38
12BB-\L	12gg\L	>
12e-\	12g\	.
12F\J	12b-\J	.
12D\L	12ff\L	.
12d\	12f\	.
12F\J	12b-\J	.
12BB-\L	12dd/L	.
12B-\	12d/	.
12F\J	12f/J	.
=39	=39	=39
12FF\L	12ee-/L	<
12c\	12e-/	.
12F\J	12an/J	.
12C\L	12dd/L	.
12Bn\	12d/	.
12F\J	12a/J	.
12FF\L	12ee-/L	.
12c\	12e-/	.
12F\J	12a/J	.
=40	=40	=40
12BB-\L	12gg\L	>
12e-\	12g\	.
12A-\J	12cc\J	.
12F\L	12ff\L	.
12d\	12f\	.
12A-\J	12a-\J	.
12BB-\L	12cc/L	.
12A-\	12c/	.
12D\J	12f/J	.
=41	=41	=41
12EE-/L	12b-/L	<
12G/	12B-/	.
12BB-/J	12g/J	.
12EE-/L	12ee-/L	.
12G/	12e-/	.
12BB-/J	12b-/J	.
12EE-/L	12gg\L	.
12B-/	12g\	.
12BB-/J	12ee-\J	.
=42	=42	=42
12EE-\L	12bb-\L	.
12e-\	12b-\	.
12G\J	12gg\J	.
12BB-\L	12eee-\L	.
12g\	12ee-\	.
12B-\J	12bb-\J	.
12E-\L	12ggg\L	.
12b-\	12ee-\	.
12B-\J	12bb-\J	.
=43	=43	=43
12AAn\L	12ggg-\L	.
12c\	12ee-\	.
12G-\J	12aan\J	.
12BBn\L	12fff\L	.
12d\	12dd\	.
12A-\J	12aa-\J	.
12C#\L	12eeen\L	.
12en\	12cc#\	.
12B-\J	12gg\J	.
=44	=44	=44
12E-\L	12eee-\L	.
12g-\	12cc\	.
12c\J	12gg-\J	.
12F\L	12ddd\L	.
12a-\	12bn\	.
12d\J	12ff\J	.
12G\L	12ddd-\L	.
12b-\	12dd-\	.
12en\J	12ggn\J	.
=45	=45	=45
12A-\L	12ccc\L	.
12a-\	12cc\	.
12f\J	12ff\J	.
12c\L	12ddd\L	.
12a-\	12cc\	.
12f\J	12ff\J	.
12A-\L	12eee-\L	.
12a-\	12cc\	.
12f\J	12ff\J	.
*clefG2	*	*
=46	=46	=46
12F/L	12fff\L	.
12ee-/	12ff\	.
12a-/J	12ccc\J	.
12e-/L	12ggg\L	>
12ee-/	12gg\	.
12a-/J	12ccc\J	.
12A-/L	12fff\L	.
12ee-/	12ff\	.
12a-/J	12ccc\J	.
*clefF4	*	*
=47	=47	=47
12AA-/L	12ccc\L	<
*clefG2	*	*
12a-/	12cc\	.
12f/J	12ff\J	.
12c/L	12ddd\L	>
12a-/	12dd\	.
12f/J	12ff\J	.
12F/L	12ccc\L	.
12a-/	12cc\	.
12e-/J	12ff\J	.
*clefF4	*	*
=48	=48	=48
12BB-\L	12ff\L	<
12e-\	12f\	.
12A-\J	12cc\J	.
12F\L	12gg\L	.
12d\	12f\	.
12A-\J	12cc\J	>
12BB-\L	12dd\L	.
12B-\	12d\	.
12A-\J	12b-\J	.
=49	=49	=49
12EE-/L	12ee-\L	p
12G/	12e-\	<
12BB-/J	12b-\J	.
12EE-/L	12bb-\L	.
12B-/	12g\	.
12BB-/J	12ee-\J	.
12EE-/L	12ccc-\L	.
12G/	12g\	.
12BB-/J	12ee-\J	.
=50	=50	=50
12EE-/L	12bb-\L	>
12A-/	12a-\	.
12BB-/J	12dd\J	.
12EE-/L	12bb--\L	.
12B-/	12a-\	.
12BB-/J	12dd\J	.
12EE-/L	12aa-\L	.
12B-/	12a-\	.
12BB-/J	12dd\J	.
=51	=51	=51
12EE-/L	12gg\L	<
12B-/	12g\	.
12BB-/J	12ee-\J	.
12EE-/L	12bb-\L	.
12B-/	12g\	.
12BB-/J	12ee-\J	.
12EE-/L	12ccc\L	.
12B-/	12g\	.
12BB-/J	12ee-\J	.
=52	=52	=52
12EE-/L	12bb-\L	>
12A-/	12a-\	.
12BB-/J	12dd\J	.
12EE-/L	12bb--\L	.
12B-/	12a-\	.
12BB-/J	12dd\J	.
12EE-/L	12aa-\L	.
12B-/	12a-\	.
12BB-/J	12dd\J	.
=53	=53	=53
12EE-\L	12gg\L	<
12B-\	12g\	.
12BB-\J	12ee-\J	.
12EE-\L	12bb-\L	.
12B-\	12b-\	.
12BB-\J	12gg\J	.
12GG\L	12eee-\L	.
12B-\	12ee-\	.
12E-\J	12bb-\J	.
=54	=54	=54
12GG\L	12ggg\L	>
12f\	12dd\	.
12Bn\J	12bbn\J	.
12D\L	12fff\L	.
12f\	12dd\	.
12B\J	12gg\J	.
12C\L	12eee-\L	.
12e-\	12cc\	.
12G\J	12gg\J	.
=55	=55	=55
12AAn\L	12eee-\L	.
12e-\	12cc\	.
12G-\J	12gg-\J	.
12E-\L	12ddd\L	.
12e-\	12bn\	.
12F#\J	12ff#\J	.
12AA\L	12ccc\L	.
12e-\	12cc\	.
12F#\J	12ff#\J	.
=56	=56	=56
12BB-\L	12ccc\L	>
12d\	12a-\	.
12A-\J	12ff\J	.
12F\L	12bb-\L	.
12d\	12g\	.
12A-\J	12cc\J	.
12BB-\L	12aa-\L	.
12B-\	12f\	.
12A-\J	12dd\J	.
=57	=57	=57
12EE-/L	12gg\L	<
12G/	12e-\	.
12BB-/J	12ee-\J	.
12EE-/L	12bb-\L	.
12B-/	12g\	.
12BB-/J	12ee-\J	.
12EE-/L	12ccc-\L	.
12G/	12g\	.
12BB-/J	12ee-\J	.
=58	=58	=58
12EE-/L	12bb-\L	>
12A-/	12a-\	.
12BB-/J	12dd\J	.
12EE-/L	12bb--\L	.
12B-/	12a-\	.
12BB-/J	12dd\J	.
12EE-/L	12aa-\L	.
12B-/	12a-\	.
12BB-/J	12dd\J	.
=59	=59	=59
12EE-/L	12gg\L	<
12B-/	12g\	.
12BB-/J	12ee-\J	.
12EE-/L	12bb-\L	.
12B-/	12g\	.
12BB-/J	12ee-\J	.
12EE-/L	12ccc\L	.
12B-/	12g\	.
12BB-/J	12ee-\J	.
=60	=60	=60
12EE-/L	12bb-\L	>
12A-/	12a-\	.
12BB-/J	12dd\J	.
12EE-/L	12bb--\L	.
12B-/	12a-\	.
12BB-/J	12dd\J	.
12EE-/L	12aa-\L	.
12B-/	12a-\	.
12BB-/J	12dd\J	.
=61	=61	=61
12EE-/L	12gg\L	<
12B-/	12g\	.
12BB-/J	12ee-\J	.
12EE-/L	12bb-\L	.
12B-/	12b-\	.
12BB-/J	12gg\J	.
12GG/L	12eee-\L	.
12B-/	12ee-\	.
12E-/J	12bb-\J	.
=62	=62	=62
12GGG\L	12ggg\L	.
12Bn\	12dd\	.
12F\J	12bbn\J	.
12GG\L	12fff\L	.
12B\	12dd\	.
12F\J	12bb\J	.
12GG#\L	12eeen\L	.
12B\	12dd\	.
12En\J	12bb\J	.
=63	=63	=63
12AAn\L	12eeen\L	>
12c#\	12cc#\	.
12En\J	12aan\J	.
12AA\L	12eee-\L	.
12cn\	12ccn\	.
12F\J	12aa\J	.
12AA\L	12ccc\L	.
12e-\	12an\	.
12F#\J	12ee-\J	.
=64	=64	=64
12BB-\L	12ccc\L	.
12e-\	12an\	.
12F#\J	12ee-\J	.
12BB-\L	12bb-\L	.
12e-\	12b-\	.
12G\J	12ee-\J	.
12BBB-/L	12dd/L	.
12A-/	12d/	.
12BB-/J	12b-/J	.
=65	=65	=65
12EE-/L	12ee-/L	p
12G/	12e-/	<
12BB-/J	12b-/J	.
12EE-/L	12bb-/L	.
12B-/	12e-/	.
12BB-/J	12b-/J	.
12EE-/L	12ee-/L	.
12G/	12e-/	.
12BB-/J	12b-/J	.
=66	=66	=66
12EE-/L	12aan\L	.
12B-/	12e-\	.
12BB-/J	12b-\J	.
12EE-/L	12ee-\L	.
12G/	12e-\	.
12BB-/J	12b-\J	.
12EE-/L	12aa-\L	.
12B-/	12e-\	.
12BB-/J	12b-\J	.
=67	=67	=67
12EE-/L	12ee-\L	.
12G/	12e-\	.
12BB-/J	12b-\J	.
12EE-/L	12gg\L	.
12B-/	12e-\	.
12BB-/J	12b-\J	.
12EE-/L	12ee-\L	.
12G/	12e-\	.
12BB-/J	12b-\J	.
=68	=68	=68
12EE-/L	12ff#\L	>
12B-/	12e-\	.
12BB-/J	12b-\J	.
12EE-/L	12ee-\L	.
12G/	12e-\	.
12BB-/J	12b-\J	.
12EE-/L	12gg\L	.
12B-/	12e-\	.
12BB-/J	12b-\J	.
=69	=69	=69
4EE-/	4ee-\	.
4r	4r	.
4r	4r	.
*clefG2	*	*
=70	=70	=70
4g^\ 4b-^\ 4ee-^\ 4gg^\	4ee-^\ 4bb-^\ 4eee-^\	ff
4r	4r	.
4r	4r	.
*clefF4	*	*
=71	=71	=71
2.EE-^/ 2.BB-^/ 2.E-^/	2.G^/ 2.B-^/ 2.e-^/ 2.g^/	.
==	==	==
*-	*-	*-
